frontend/public/svg/interface/floppy.svg

<svg width="159" height="159" viewBox="0 0 159 159" fill="none" xmlns="http://www.w3.org/2000/svg">
<g clip-path="url(#clip0)">
<path d="M86.7559 158.412C72.2959 158.165 57.8261 158.167 43.3805 157.584C33.6235 157.19 23.8485 156.501 14.2241 154.522C8.6772 153.381 5.27399 150.239 4.41702 144.648C3.88841 141.363 3.58262 138.045 3.50203 134.718C3.20034 116.176 3.1802 97.6297 2.72896 79.0923C2.3889 65.1133 1.50973 51.1482 0.944704 37.1744C0.698276 31.0863 0.673794 25.0638 2.16797 19.0029C4.28959 10.402 9.88008 5.78061 18.0155 3.78046C21.2677 3.03398 24.5881 2.62403 27.9245 2.55713C40.0437 2.14373 52.1714 1.96337 64.2918 1.58761C73.2966 1.3079 82.2935 0.651702 91.2976 0.556949C98.52 0.481667 105.749 0.981383 112.974 1.2598C115.658 1.37652 118.251 2.26253 120.443 3.81167C127.814 8.84519 134.335 14.8716 140.854 20.9207C145.084 24.8464 149.393 28.7084 153.911 32.2941C156.879 34.6492 158.376 37.434 158.332 41.1267C158.233 49.4538 158.179 57.7815 157.989 66.1069C157.671 79.982 157.111 93.8527 156.936 107.729C156.871 119.946 155.324 132.109 152.33 143.954C151.913 145.56 151.38 147.134 150.903 148.727C149.579 153.136 146.488 155.582 142.06 156.269C138.121 156.978 134.14 157.425 130.141 157.608C117.686 157.867 105.226 157.875 92.767 157.974C90.765 157.991 88.7624 157.974 86.7604 157.974C86.7591 158.124 86.7572 158.268 86.7559 158.412ZM27.3301 12.1316C24.1441 12.6242 21.3879 12.85 18.7409 13.5061C14.6628 14.5166 11.8397 16.8983 11.1667 21.3477C10.8781 22.9857 10.4429 24.5944 9.8663 26.1547C8.53143 30.0363 8.57954 34.0327 8.90399 38.0162C9.84094 49.5148 11.2447 60.9868 11.8064 72.5019C12.5347 87.4661 12.6519 102.461 12.977 117.444C13.137 124.769 13.1394 132.098 13.2818 139.423C13.3988 145.452 13.8669 146.208 19.7324 146.877C29.2254 147.959 38.7471 149.327 48.2726 149.459C72.0703 149.79 95.8809 149.568 119.685 149.394C125.678 149.35 131.675 148.762 137.653 148.225C141.631 147.869 141.904 147.577 142.724 143.813C143.599 139.808 144.327 135.765 144.972 131.717C146.602 121.486 146.652 111.154 146.858 100.832C147.012 93.0635 147.248 85.2959 147.439 77.5276C147.702 66.7623 147.921 55.9967 148.239 45.2328C148.33 44.144 148.135 43.0502 147.672 42.06C147.21 41.0697 146.497 40.2172 145.603 39.5867C141.349 36.2042 137.377 32.47 133.292 28.8785C127.625 23.8924 121.908 18.9608 116.322 13.887C113.802 11.6 110.907 11.2502 107.423 11.2911C107.553 13.68 107.77 15.8678 107.761 18.0549C107.742 23.0423 107.897 28.0549 107.455 33.0112C106.854 39.7541 103.852 42.8756 97.3198 44.4773C96.3587 44.7483 95.3815 44.9558 94.3938 45.0984C86.9958 45.907 79.6088 46.902 72.1887 47.4056C62.429 48.0682 52.6484 48.6424 42.8557 47.7365C35.7762 47.0816 31.983 44.1159 29.9427 37.2497C28.2697 31.7205 27.3919 25.9823 27.3355 20.2068C27.318 17.6836 27.3301 15.1604 27.3301 12.131V12.1316ZM96.6878 10.5616C91.5446 10.5616 86.7864 10.4508 82.0347 10.5845C71.149 10.8908 60.267 11.3424 49.3813 11.6812C45.2713 11.811 41.1554 11.7739 37.0435 11.8531C36.1762 11.9177 35.3133 12.0314 34.4589 12.1933C34.9186 19.9843 35.9299 27.4195 38.1445 34.6621C39.2551 38.2964 39.8862 38.8092 43.7888 39.0571C45.2296 39.1493 46.6796 39.2141 48.1217 39.1693C56.6745 38.902 65.2425 38.8326 73.7719 38.2323C80.2954 37.7741 86.7838 36.715 93.2618 35.7525C96.3484 35.2937 96.7976 34.7524 96.8685 31.603C96.9986 25.8368 96.9335 20.0666 96.9179 14.2978C96.9153 13.203 96.7872 12.1095 96.6878 10.561V10.5616Z" fill="black"/>
<path d="M94.5144 67.0347C100.34 67.2105 111.122 67.5221 121.903 67.8783C123.237 67.9458 124.562 68.1178 125.869 68.3923C129.586 69.1062 132.165 71.1771 132.997 74.9542C133.641 77.8707 134.152 80.8268 134.53 83.79C135.78 93.6039 136.542 103.445 135.642 113.339C135.507 114.663 135.259 115.972 134.902 117.254C133.662 121.889 130.552 124.637 125.941 125.657C123.995 126.12 122.002 126.368 120.001 126.395C103.983 126.326 87.9622 126.318 71.9509 125.978C63.3977 125.796 54.8509 125.048 46.315 124.436C43.9905 124.225 41.6872 123.825 39.4285 123.238C32.4713 121.559 29.2638 117.828 28.769 110.656C28.5882 107.553 28.5882 104.442 28.769 101.339C29.0759 94.9083 29.5065 88.4834 29.9278 82.0585C30.0225 80.9559 30.2042 79.863 30.4714 78.789C31.5832 73.9028 34.6047 71.0538 39.6276 70.482C45.5945 69.8071 51.5563 68.9693 57.5447 68.6182C68.1986 67.9965 78.8763 67.6843 94.5144 67.0347ZM124.153 77.7571C119.543 77.4845 115.437 77.0023 111.336 77.0432C96.991 77.1873 82.637 77.2639 68.3072 77.8571C58.9913 78.2425 49.7069 79.4406 40.4174 80.3628C37.8862 80.6139 37.6756 80.9683 37.3239 83.4324C37.2144 84.2015 37.1621 84.9777 37.1677 85.7545C37.2193 93.8511 37.2823 101.948 37.3569 110.044C37.3475 111.043 37.4068 112.041 37.5344 113.032C37.5776 113.648 37.8156 114.235 38.2138 114.707C38.6119 115.181 39.1498 115.515 39.7504 115.663C40.6975 115.981 41.6708 116.216 42.6589 116.364C51.2975 117.048 59.9323 118.043 68.5841 118.241C83.0389 118.571 97.5053 118.416 111.967 118.381C115.19 118.347 118.409 118.149 121.611 117.788C125.517 117.381 126.203 116.717 126.304 112.776C126.532 103.789 126.693 94.7948 125.295 85.8622C124.889 83.2559 124.557 80.6386 124.153 77.7571Z" fill="black"/>
</g>
<defs>
<clipPath id="clip0">
<rect width="158" height="159" fill="white" transform="translate(0.777344)"/>
</clipPath>
</defs>
</svg>

<svg xmlns="http://www.w3.org/2000/svg" width="159" height="159" fill="none" viewBox="0 0 159 159"><g fill="#000" clip-path="url(#a)"><path d="M86.756 158.412c-14.46-.247-28.93-.245-43.375-.828-9.757-.394-19.532-1.083-29.157-3.062-5.547-1.141-8.95-4.283-9.807-9.874a74 74 0 0 1-.915-9.93C3.2 116.176 3.18 97.63 2.729 79.092c-.34-13.979-1.22-27.944-1.784-41.918-.247-6.088-.271-12.11 1.223-18.171C4.29 10.402 9.88 5.78 18.015 3.78a48.7 48.7 0 0 1 9.91-1.223c12.119-.413 24.246-.594 36.367-.97 9.005-.28 18.001-.935 27.006-1.03 7.222-.075 14.451.424 21.676.703a14 14 0 0 1 7.469 2.552c7.371 5.033 13.892 11.06 20.411 17.109 4.23 3.925 8.539 7.787 13.057 11.373 2.968 2.355 4.465 5.14 4.421 8.833-.099 8.327-.153 16.655-.343 24.98-.318 13.875-.878 27.746-1.053 41.622a151 151 0 0 1-4.606 36.225c-.417 1.606-.95 3.18-1.427 4.773-1.324 4.409-4.415 6.855-8.843 7.542a91 91 0 0 1-11.919 1.339c-12.455.259-24.915.267-37.374.366-2.002.017-4.005 0-6.007 0q-.001.224-.004.438M27.33 12.132c-3.186.492-5.942.718-8.59 1.374-4.077 1.01-6.9 3.392-7.573 7.842a28 28 0 0 1-1.3 4.807c-1.336 3.881-1.287 7.878-.963 11.861.937 11.499 2.34 22.97 2.902 34.486.729 14.964.846 29.959 1.171 44.942.16 7.325.162 14.654.305 21.979.117 6.029.585 6.785 6.45 7.454 9.493 1.082 19.015 2.45 28.54 2.582 23.798.331 47.609.109 71.413-.065 5.993-.044 11.99-.632 17.968-1.169 3.978-.356 4.251-.648 5.071-4.412.875-4.005 1.603-8.048 2.248-12.096 1.63-10.231 1.68-20.563 1.886-30.885.154-7.768.39-15.536.581-23.304.263-10.766.482-21.531.8-32.295a6.27 6.27 0 0 0-2.636-5.646c-4.254-3.383-8.226-7.117-12.311-10.709-5.667-4.986-11.384-9.917-16.97-14.991-2.52-2.287-5.415-2.637-8.899-2.596.13 2.389.347 4.577.338 6.764-.019 4.987.136 10-.306 14.956-.601 6.743-3.603 9.865-10.135 11.466a23 23 0 0 1-2.926.621c-7.398.809-14.785 1.804-22.205 2.308-9.76.662-19.54 1.236-29.333.33-7.08-.654-10.873-3.62-12.913-10.486a60.9 60.9 0 0 1-2.608-17.043c-.017-2.523-.005-5.047-.005-8.076m69.358-1.57c-5.143 0-9.902-.111-14.653.023-10.886.306-21.768.757-32.654 1.096-4.11.13-8.226.093-12.337.172q-1.302.097-2.585.34c.46 7.791 1.47 15.227 3.685 22.47 1.111 3.633 1.742 4.146 5.645 4.394 1.44.092 2.89.157 4.333.112 8.553-.267 17.12-.336 25.65-.937 6.523-.458 13.012-1.517 19.49-2.48 3.086-.458 3.536-1 3.606-4.149.13-5.766.066-11.536.05-17.305-.003-1.095-.13-2.188-.23-3.737"/><path d="M94.514 67.035c5.826.175 16.608.487 27.389.843 1.334.068 2.659.24 3.966.514 3.717.714 6.296 2.785 7.128 6.562a99 99 0 0 1 1.533 8.836c1.25 9.814 2.012 19.655 1.112 29.549a23.5 23.5 0 0 1-.74 3.915c-1.24 4.635-4.35 7.383-8.961 8.403a27.3 27.3 0 0 1-5.94.738c-16.018-.069-32.039-.077-48.05-.417-8.553-.182-17.1-.93-25.636-1.542a43 43 0 0 1-6.886-1.198c-6.958-1.679-10.165-5.41-10.66-12.582a80 80 0 0 1 0-9.317c.307-6.43.738-12.856 1.159-19.28a21 21 0 0 1 .543-3.27c1.112-4.886 4.134-7.735 9.157-8.307 5.966-.675 11.928-1.513 17.917-1.864 10.654-.621 21.331-.934 36.97-1.583m29.639 10.722c-4.61-.273-8.716-.755-12.817-.714-14.345.144-28.699.22-43.029.814-9.316.386-18.6 1.584-27.89 2.506-2.53.25-2.741.605-3.093 3.07-.11.768-.162 1.545-.156 2.321q.077 12.146.189 24.29-.014 1.5.177 2.988a2.92 2.92 0 0 0 2.216 2.631c.947.318 1.92.553 2.909.701 8.639.684 17.273 1.679 25.925 1.877 14.455.33 28.921.175 43.383.14a95 95 0 0 0 9.644-.593c3.906-.407 4.592-1.071 4.693-5.012.228-8.987.389-17.981-1.009-26.914-.406-2.606-.738-5.223-1.142-8.105"/></g><defs><clipPath id="a"><path fill="#fff" d="M.777 0h158v159h-158z"/></clipPath></defs></svg>
